X:1
T:[ID 4-22r]
T:[ID 4-22r]
T:Bezeichnung standardisiert: Tantz Tantz
T:Urheber unbekannt Datum in der hier transkribierten schriftlichen Quelle: 1792
C:Urheber unbekannt
C:Datum in der hier transkribierten schriftlichen Quelle: 1792
L:1/8
M:2/4
K:D
V:1 treble 
V:1
 defd | g2 fe | dAFD | defd | g2 f2 | ec d2 :: (6:5:1a3 gff | gg e2 | (6:5:1a3 gff | gg e2 | defd | %11
 g2 f2 | ec d2 | defd | g2 f2 | ec d2 :| %16

